X: 3025
T: MISS AMELIA ELIPHANT GASK
Q:"Strathspey."
R: Strathspey.
%R:strathspey
B: James Kerr "Merry Melodies" v.3 p.5 #25
Z: 2016 John Chambers <jc:trillian.mit.edu>
M: C
L: 1/16
K: D
uB2 |\
AF3 F3D E3D B,4 | AF3 F3A B3cd3B |\
AF3 F3D E3DE3F | D3B,A,3B, D4-D2 :|
|: f2 |\
(defg) a3g fd3 d3f | a3df3d fe3 e3f |\
(defg) a3g fd3 d3f |[1 d3B AB3 d6 :|\
[2 dcBA Bdce d6 |]

%%sep 1 1 500
%%sep 1 1 500

